img/spherical_lens.svg

<svg version="1.1" xmlns="http://www.w3.org/2000/svg" xmlns:xlink="http://www.w3.org/1999/xlink" width="100" height="100"><defs/><g><rect fill="black" stroke="none" x="0" y="0" width="100" height="100"/><g/><path fill="none" stroke="rgb(0,255,0)" paint-order="fill stroke markers" d=" M -28.631057840716743 22.97826254318 L -27.951000980369304 70.4198346494702" stroke-miterlimit="10" stroke-width="4" stroke-dasharray=""/><path fill="none" stroke="rgb(128,128,128)" paint-order="fill stroke markers" d=" M -30.630852391076708 23.0069288361142 L -29.95079553072927 70.4485009424044" stroke-opacity="255" stroke-miterlimit="10" stroke-width="2" stroke-dasharray=""/><path fill="white" stroke="none" paint-order="stroke fill markers" d=" M 22.443306104432807 6.764406193091894 L 28.848807991821886 6.764406193091894 L 28.848807991821886 6.764406193091894 A 97.46254406461915 97.46254406461915 0 0 1 28.848807991821886 92.78114582374525 L 22.443306104432807 92.78114582374525 L 22.443306104432807 92.78114582374523 A 97.46254406461918 97.46254406461918 0 0 1 22.443306104432807 6.764406193091901" fill-opacity="0.3139983275215552"/><path fill="none" stroke="rgb(255,255,128)" paint-order="fill stroke markers" d=" M -30.55918665874122 28.006415212014108 L 15.054439635091555 27.352561258419417" stroke-miterlimit="10" stroke-dasharray=""/><path fill="none" stroke="rgb(255,255,128)" paint-order="fill stroke markers" d=" M -30.415855194070236 38.005387963813924 L 13.231769131006175 37.37971589937151" stroke-miterlimit="10" stroke-dasharray=""/><path fill="none" stroke="rgb(255,255,128)" paint-order="fill stroke markers" d=" M -30.272523729399254 48.00436071561374 L 12.46971575448741 47.39166699790753" stroke-miterlimit="10" stroke-dasharray=""/><path fill="none" stroke="rgb(255,255,128)" paint-order="fill stroke markers" d=" M -30.12919226472827 58.00333346741356 L 12.738653499442108 57.38883923153695" stroke-miterlimit="10" stroke-dasharray=""/><path fill="none" stroke="rgb(255,255,128)" paint-order="fill stroke markers" d=" M -29.98586080005729 68.00230621921338 L 14.04262520400583 67.37117464771545" stroke-miterlimit="10" stroke-dasharray=""/><path fill="none" stroke="rgb(255,255,128)" paint-order="fill stroke markers" d=" M 15.054439635091555 27.352561258419417 L -2006.7854609078959 -1021.5664602290692" stroke-miterlimit="10" stroke-opacity="0.09491879464726624" stroke-dasharray=""/><path fill="none" stroke="rgb(255,255,128)" paint-order="fill stroke markers" d=" M 13.231769131006175 37.37971589937151 L -2190.2912299247246 -570.8937851439725" stroke-miterlimit="10" stroke-opacity="0.09484702281483152" stroke-dasharray=""/><path fill="none" stroke="rgb(255,255,128)" paint-order="fill stroke markers" d=" M 12.46971575448741 47.39166699790753 L -2278.135366905398 -97.568850074473" stroke-miterlimit="10" stroke-opacity="0.09483847131416412" stroke-dasharray=""/><path fill="none" stroke="rgb(255,255,128)" paint-order="fill stroke markers" d=" M 12.738653499442108 57.38883923153695 L -2269.473473193948 383.9216714593506" stroke-miterlimit="10" stroke-opacity="0.09483877441390653" stroke-dasharray=""/><path fill="none" stroke="rgb(255,255,128)" paint-order="fill stroke markers" d=" M 14.04262520400583 67.37117464771545 L -2163.1994620668042 859.141512941891" stroke-miterlimit="10" stroke-opacity="0.09485512061140976" stroke-dasharray=""/><path fill="none" stroke="rgb(255,255,128)" paint-order="fill stroke markers" d=" M 15.054439635091555 27.352561258419417 L 36.738165358386 29.586798525117857" stroke-miterlimit="10" stroke-opacity="0.9050812053527337" stroke-dasharray=""/><path fill="none" stroke="rgb(255,255,128)" paint-order="fill stroke markers" d=" M 13.231769131006175 37.37971589937151 L 38.22002762575407 38.6962717017363" stroke-miterlimit="10" stroke-opacity="0.9051529771851685" stroke-dasharray=""/><path fill="none" stroke="rgb(255,255,128)" paint-order="fill stroke markers" d=" M 12.46971575448741 47.39166699790753 L 38.8248716912629 47.49512370012055" stroke-miterlimit="10" stroke-opacity="0.9051615286858359" stroke-dasharray=""/><path fill="none" stroke="rgb(255,255,128)" paint-order="fill stroke markers" d=" M 12.738653499442108 57.38883923153695 L 38.63686413483781 56.23727398880206" stroke-miterlimit="10" stroke-opacity="0.9051612255860935" stroke-dasharray=""/><path fill="none" stroke="rgb(255,255,128)" paint-order="fill stroke markers" d=" M 14.04262520400583 67.37117464771545 L 37.62880158603632 65.16230213308124" stroke-miterlimit="10" stroke-opacity="0.9051448793885902" stroke-dasharray=""/><path fill="none" stroke="rgb(255,255,128)" paint-order="fill stroke markers" d=" M 36.738165358386 29.586798525117857 L 12.650775365320087 43.37594680964503" stroke-miterlimit="10" stroke-opacity="0.08907583554103068" stroke-dasharray=""/><path fill="none" stroke="rgb(255,255,128)" paint-order="fill stroke markers" d=" M 38.22002762575407 38.6962717017363 L 12.509803797037122 46.1012768719075" stroke-miterlimit="10" stroke-opacity="0.08603046454111236" stroke-dasharray=""/><path fill="none" stroke="rgb(255,255,128)" paint-order="fill stroke markers" d=" M 38.8248716912629 47.49512370012055 L 12.445156929938008 48.83289579474871" stroke-miterlimit="10" stroke-opacity="0.08584418733208093" stroke-dasharray=""/><path fill="none" stroke="rgb(255,255,128)" paint-order="fill stroke markers" d=" M 38.63686413483781 56.23727398880206 L 12.45681706669545 51.54928560744564" stroke-miterlimit="10" stroke-opacity="0.08588058497724285" stroke-dasharray=""/><path fill="none" stroke="rgb(255,255,128)" paint-order="fill stroke markers" d=" M 37.62880158603632 65.16230213308124 L 12.543246358157617 54.24412419917416" stroke-miterlimit="10" stroke-opacity="0.0870471833154519" stroke-dasharray=""/><path fill="none" stroke="rgb(255,255,128)" paint-order="fill stroke markers" d=" M 12.445156929938008 48.83289579474871 L 38.84723959046738 50.68290003496748" stroke-miterlimit="10" stroke-opacity="0.024425805575523988" stroke-dasharray=""/><path fill="none" stroke="rgb(255,255,128)" paint-order="fill stroke markers" d=" M 12.543246358157617 54.24412419917416 L 38.366291070337304 40.05980224609325" stroke-miterlimit="10" stroke-opacity="0.014423249345439943" stroke-dasharray=""/><path fill="none" stroke="rgb(255,255,128)" paint-order="fill stroke markers" d=" M 38.366291070337304 40.05980224609325 L 13.992557259035564 32.449322339960666" stroke-miterlimit="10" stroke-opacity="0.011164759341750796" stroke-dasharray=""/><path fill="none" stroke="rgb(255,255,128)" paint-order="fill stroke markers" d=" M 36.738165358386 29.586798525117857 L 2148.770736308573 944.417740979498" stroke-miterlimit="10" stroke-opacity="0.8160053698117031" stroke-dasharray=""/><path fill="none" stroke="rgb(255,255,128)" paint-order="fill stroke markers" d=" M 38.22002762575407 38.6962717017363 L 2302.1564461417042 508.862644956723" stroke-miterlimit="10" stroke-opacity="0.8191225126440561" stroke-dasharray=""/><path fill="none" stroke="rgb(255,255,128)" paint-order="fill stroke markers" d=" M 38.8248716912629 47.49512370012055 L 2359.545428266007 113.04130082626767" stroke-miterlimit="10" stroke-opacity="0.8193173413537549" stroke-dasharray=""/><path fill="none" stroke="rgb(255,255,128)" paint-order="fill stroke markers" d=" M 38.63686413483781 56.23727398880206 L 2344.657988078804 -278.57511383465044" stroke-miterlimit="10" stroke-opacity="0.8192806406088506" stroke-dasharray=""/><path fill="none" stroke="rgb(255,255,128)" paint-order="fill stroke markers" d=" M 37.62880158603632 65.16230213308124 L 2248.042356210668 -696.9817681687032" stroke-miterlimit="10" stroke-opacity="0.8180976960731383" stroke-dasharray=""/><path fill="none" stroke="rgb(255,255,128)" paint-order="fill stroke markers" d=" M 12.650775365320087 43.37594680964503 L 37.991487895230605 62.69160785469134" stroke-miterlimit="10" stroke-opacity="0.08907583554103068" stroke-dasharray=""/><path fill="none" stroke="rgb(255,255,128)" paint-order="fill stroke markers" d=" M 12.509803797037122 46.1012768719075 L -1887.486096615726 1331.4661988740595" stroke-miterlimit="10" stroke-opacity="0.07707843015646484" stroke-dasharray=""/><path fill="none" stroke="rgb(255,255,128)" paint-order="fill stroke markers" d=" M 12.445156929938008 48.83289579474871 L -2271.624453124689 288.4498103346174" stroke-miterlimit="10" stroke-opacity="0.07770225214023961" stroke-dasharray=""/><path fill="none" stroke="rgb(255,255,128)" paint-order="fill stroke markers" d=" M 12.45681706669545 51.54928560744564 L -2141.461716348693 -753.1637963062985" stroke-miterlimit="10" stroke-opacity="0.07763677054294914" stroke-dasharray=""/><path fill="none" stroke="rgb(255,255,128)" paint-order="fill stroke markers" d=" M 12.543246358157617 54.24412419917416 L -1347.9045629734944 -1802.8794052083542" stroke-miterlimit="10" stroke-opacity="0.07262393397001196" stroke-dasharray=""/><path fill="none" stroke="rgb(255,255,128)" paint-order="fill stroke markers" d=" M 38.84723959046738 50.68290003496748 L 2345.8276725040264 338.4283210924067" stroke-miterlimit="10" stroke-opacity="0.022108676303248413" stroke-dasharray=""/><path fill="none" stroke="rgb(255,255,128)" paint-order="fill stroke markers" d=" M 38.366291070337304 40.05980224609325 L 1415.391754125291 -1819.3082888796544" stroke-miterlimit="10" stroke-opacity="0.011632059510002245" stroke-dasharray=""/><path fill="none" stroke="rgb(255,255,128)" paint-order="fill stroke markers" d=" M 13.992557259035564 32.449322339960666 L -2074.504477869937 -886.5963046363856" stroke-miterlimit="10" stroke-opacity="0.01004197738572211" stroke-dasharray=""/><path fill="none" stroke="rgb(255,255,128)" paint-order="fill stroke markers" d=" M 37.991487895230605 62.69160785469134 L 15.012313631604002 72.01402280409323" stroke-miterlimit="10" stroke-opacity="0.02715386802743851" stroke-dasharray=""/><path fill="none" stroke="rgb(255,255,128)" paint-order="fill stroke markers" d=" M 37.991487895230605 62.69160785469134 L 560.6783640833062 2339.4737670608592" stroke-miterlimit="10" stroke-opacity="0.06192196751359218" stroke-dasharray=""/><path fill="none" stroke="rgb(255,255,128)" paint-order="fill stroke markers" d=" M 15.012313631604002 72.01402280409323 L -1992.652334993272 1239.3199417305534" stroke-miterlimit="10" stroke-opacity="0.024336325644379785" stroke-dasharray=""/><path fill="none" stroke="rgb(0,255,0)" paint-order="fill stroke markers" d=" M -28.631057840716743 22.97826254318 L -27.951000980369304 70.4198346494702" stroke-miterlimit="10" stroke-width="4" stroke-dasharray=""/><path fill="none" stroke="rgb(128,128,128)" paint-order="fill stroke markers" d=" M -30.630852391076708 23.0069288361142 L -29.95079553072927 70.4485009424044" stroke-opacity="255" stroke-miterlimit="10" stroke-width="2" stroke-dasharray=""/></g></svg>

<svg xmlns="http://www.w3.org/2000/svg" width="100" height="100"><path d="M0 0h100v100H0z"/><path fill="none" stroke="#0F0" paint-order="fill stroke markers" d="m-28.631 22.978.68 47.442" stroke-miterlimit="10" stroke-width="4"/><path fill="none" stroke="gray" paint-order="fill stroke markers" d="m-30.63 23.007.68 47.442" stroke-opacity="255" stroke-miterlimit="10" stroke-width="2"/><path fill="#fff" paint-order="stroke fill markers" d="M22.443 6.764h6.406a97.463 97.463 0 0 1 0 86.017h-6.406a97.463 97.463 0 0 1 0-86.017" fill-opacity=".314"/><path fill="none" stroke="#FFFF80" paint-order="fill stroke markers" d="m-30.56 28.006 45.614-.653M-30.416 38.005l43.648-.625M-30.273 48.004l42.743-.612M-30.13 58.003l42.869-.614M-29.986 68.002l44.029-.63" stroke-miterlimit="10"/><path fill="none" stroke="#FFFF80" paint-order="fill stroke markers" d="m15.054 27.353-2021.84-1048.92M13.232 37.38l-2203.523-608.274M12.47 47.392l-2290.605-144.96M12.739 57.389l-2282.212 326.533M14.043 67.371-2163.2 859.141" stroke-miterlimit="10" stroke-opacity=".095"/><path fill="none" stroke="#FFFF80" paint-order="fill stroke markers" d="m15.054 27.353 21.684 2.234M13.232 37.38l24.988 1.316M12.47 47.392l26.355.103M12.739 57.389l25.898-1.152M14.043 67.371l23.586-2.209" stroke-miterlimit="10" stroke-opacity=".905"/><path fill="none" stroke="#FFFF80" paint-order="fill stroke markers" d="M36.738 29.587 12.651 43.376" stroke-miterlimit="10" stroke-opacity=".089"/><path fill="none" stroke="#FFFF80" paint-order="fill stroke markers" d="m38.22 38.696-25.71 7.405M38.825 47.495l-26.38 1.338M38.637 56.237l-26.18-4.688" stroke-miterlimit="10" stroke-opacity=".086"/><path fill="none" stroke="#FFFF80" paint-order="fill stroke markers" d="M37.629 65.162 12.543 54.244" stroke-miterlimit="10" stroke-opacity=".087"/><path fill="none" stroke="#FFFF80" paint-order="fill stroke markers" d="m12.445 48.833 26.402 1.85" stroke-miterlimit="10" stroke-opacity=".024"/><path fill="none" stroke="#FFFF80" paint-order="fill stroke markers" d="M12.543 54.244 38.366 40.06" stroke-miterlimit="10" stroke-opacity=".014"/><path fill="none" stroke="#FFFF80" paint-order="fill stroke markers" d="m38.366 40.06-24.373-7.61" stroke-miterlimit="10" stroke-opacity=".011"/><path fill="none" stroke="#FFFF80" paint-order="fill stroke markers" d="m36.738 29.587 2112.033 914.83" stroke-miterlimit="10" stroke-opacity=".816"/><path fill="none" stroke="#FFFF80" paint-order="fill stroke markers" d="m38.22 38.696 2263.936 470.167M38.825 47.495l2320.72 65.546M38.637 56.237l2306.021-334.812" stroke-miterlimit="10" stroke-opacity=".819"/><path fill="none" stroke="#FFFF80" paint-order="fill stroke markers" d="m37.629 65.162 2210.413-762.144" stroke-miterlimit="10" stroke-opacity=".818"/><path fill="none" stroke="#FFFF80" paint-order="fill stroke markers" d="m12.65 43.376 25.341 19.316" stroke-miterlimit="10" stroke-opacity=".089"/><path fill="none" stroke="#FFFF80" paint-order="fill stroke markers" d="m12.51 46.101-1899.996 1285.365" stroke-miterlimit="10" stroke-opacity=".077"/><path fill="none" stroke="#FFFF80" paint-order="fill stroke markers" d="m12.445 48.833-2284.07 239.617M12.457 51.55l-2153.919-804.714" stroke-miterlimit="10" stroke-opacity=".078"/><path fill="none" stroke="#FFFF80" paint-order="fill stroke markers" d="m12.543 54.244-1360.448-1857.123" stroke-miterlimit="10" stroke-opacity=".073"/><path fill="none" stroke="#FFFF80" paint-order="fill stroke markers" d="m38.847 50.683 2306.98 287.745" stroke-miterlimit="10" stroke-opacity=".022"/><path fill="none" stroke="#FFFF80" paint-order="fill stroke markers" d="m38.366 40.06 1377.026-1859.368" stroke-miterlimit="10" stroke-opacity=".012"/><path fill="none" stroke="#FFFF80" paint-order="fill stroke markers" d="m13.993 32.45-2088.497-919.046" stroke-miterlimit="10" stroke-opacity=".01"/><path fill="none" stroke="#FFFF80" paint-order="fill stroke markers" d="m37.991 62.692-22.979 9.322" stroke-miterlimit="10" stroke-opacity=".027"/><path fill="none" stroke="#FFFF80" paint-order="fill stroke markers" d="m37.991 62.692 522.687 2276.782" stroke-miterlimit="10" stroke-opacity=".062"/><path fill="none" stroke="#FFFF80" paint-order="fill stroke markers" d="M15.012 72.014-1992.652 1239.32" stroke-miterlimit="10" stroke-opacity=".024"/><path fill="none" stroke="#0F0" paint-order="fill stroke markers" d="m-28.631 22.978.68 47.442" stroke-miterlimit="10" stroke-width="4"/><path fill="none" stroke="gray" paint-order="fill stroke markers" d="m-30.63 23.007.68 47.442" stroke-opacity="255" stroke-miterlimit="10" stroke-width="2"/></svg>
